icons/evolvere-blue-folders-flat-vivid-dark-fallback/apps/64/exfalso.svg

<?xml version="1.0" encoding="UTF-8" standalone="no"?>
<!-- Created with Inkscape (http://www.inkscape.org/) -->

<svg
   xmlns:dc="http://purl.org/dc/elements/1.1/"
   xmlns:cc="http://creativecommons.org/ns#"
   xmlns:rdf="http://www.w3.org/1999/02/22-rdf-syntax-ns#"
   xmlns:svg="http://www.w3.org/2000/svg"
   xmlns="http://www.w3.org/2000/svg"
   xmlns:sodipodi="http://sodipodi.sourceforge.net/DTD/sodipodi-0.dtd"
   xmlns:inkscape="http://www.inkscape.org/namespaces/inkscape"
   width="64"
   height="64"
   id="svg13094"
   version="1.1"
   inkscape:version="0.91+devel r"
   sodipodi:docname="exfalso.svg">
  <sodipodi:namedview
     id="base"
     pagecolor="#ffffff"
     bordercolor="#666666"
     borderopacity="1.0"
     inkscape:pageopacity="0"
     inkscape:pageshadow="2"
     inkscape:zoom="11.313709"
     inkscape:cx="41.07274"
     inkscape:cy="29.366313"
     inkscape:document-units="px"
     inkscape:current-layer="svg13094"
     showgrid="true"
     inkscape:snap-bbox="true"
     inkscape:bbox-paths="true"
     inkscape:bbox-nodes="true"
     inkscape:snap-bbox-edge-midpoints="true"
     inkscape:snap-bbox-midpoints="true"
     inkscape:object-paths="true"
     inkscape:snap-intersection-paths="true"
     inkscape:object-nodes="true"
     inkscape:snap-smooth-nodes="true"
     inkscape:snap-midpoints="true"
     inkscape:snap-object-midpoints="true"
     inkscape:snap-center="true"
     showguides="true"
     inkscape:guide-bbox="true"
     inkscape:window-width="1920"
     inkscape:window-height="1023"
     inkscape:window-x="-10"
     inkscape:window-y="35"
     inkscape:window-maximized="1"
     inkscape:snap-global="true"
     fit-margin-top="0"
     fit-margin-left="0"
     fit-margin-right="0"
     fit-margin-bottom="0"
     showborder="true"
     inkscape:showpageshadow="false"
     inkscape:snap-page="true">
    <inkscape:grid
       type="xygrid"
       id="grid3075"
       empspacing="5"
       visible="true"
       enabled="true"
       snapvisiblegridlinesonly="true"
       originx="1.6362304e-08px"
       originy="18px" />
  </sodipodi:namedview>
  <defs
     id="defs13096" />
  <metadata
     id="metadata13099">
    <rdf:RDF>
      <cc:Work
         rdf:about="">
        <dc:format>image/svg+xml</dc:format>
        <dc:type
           rdf:resource="http://purl.org/dc/dcmitype/StillImage" />
        <dc:title></dc:title>
      </cc:Work>
    </rdf:RDF>
  </metadata>
  <path
     inkscape:connector-curvature="0"
     style="color:#000000;display:inline;overflow:visible;visibility:visible;opacity:1;fill:#3b577a;fill-opacity:1;fill-rule:nonzero;stroke:none;stroke-width:1;stroke-linecap:butt;stroke-linejoin:miter;stroke-miterlimit:4;stroke-dasharray:none;stroke-dashoffset:0;stroke-opacity:1;marker:none;enable-background:accumulate"
     d="m 0,4 0,30 0,28 2,2 30,0 30,0 2,-2 L 64,34 64,4 32,4 0,4 Z"
     id="path4095" />
  <path
     inkscape:connector-curvature="0"
     style="color:#000000;display:inline;overflow:visible;visibility:visible;opacity:1;fill:#668cbb;fill-opacity:1;fill-rule:nonzero;stroke:none;stroke-width:2.28571415;stroke-linecap:butt;stroke-linejoin:miter;stroke-miterlimit:4;stroke-dasharray:none;stroke-dashoffset:0;stroke-opacity:1;marker:none;enable-background:accumulate"
     d="M 2,0 0,1 0,4 32,4 64,4 64,1 62,0 32,0 2,0 Z"
     id="path4090" />
  <path
     inkscape:connector-curvature="0"
     style="opacity:1;fill:#729bcd;fill-opacity:1;fill-rule:nonzero;stroke-width:1;stroke-linecap:butt;stroke-linejoin:miter;stroke-miterlimit:4;stroke-dasharray:none;stroke-dashoffset:0;stroke-opacity:1"
     d="M 0,3 0,6 2,4 Z"
     id="path4298"
     sodipodi:nodetypes="cccc" />
  <path
     d="M 64,6 62,4 64,3 Z"
     id="path3028"
     style="opacity:1;fill:#4f6f97;fill-opacity:1;stroke:none;stroke-width:0.62299293;stroke-linecap:butt;stroke-linejoin:miter;stroke-miterlimit:4;stroke-dasharray:none;stroke-dashoffset:0;stroke-opacity:1;marker:none"
     inkscape:connector-curvature="0" />
  <g
     id="g3043"
     inkscape:export-filename="folder.png"
     inkscape:export-xdpi="90"
     inkscape:export-ydpi="90"
     transform="translate(-0.62500009,0.082283)" />
  <g
     id="scalable"
     transform="matrix(1.0385892,0,0,1.0385892,1214.7222,1878.8121)"
     inkscape:label="#g3701"
     style="fill:#ffffff" />
  <path
     style="color:#000000;fill:#ffffff;fill-opacity:0.86046511;fill-rule:nonzero;stroke:none;marker:none;visibility:visible;display:inline;overflow:visible;enable-background:accumulate;stroke-width:1"
     d="m 11.39644,13.396444 c 5.060996,5.330603 2.86483,8.740677 5.641682,15.019062 2.576921,5.826347 8.186374,1.465291 12.026687,5.584505 -3.840295,4.119176 -9.468853,-0.260914 -12.045758,5.565432 -2.776836,6.278402 -0.56163,9.707513 -5.622611,15.038112 5.330603,-5.060992 8.759714,-2.845771 15.038116,-5.622608 5.826366,-2.57692 1.465295,-8.186373 5.584521,-12.026682 4.089881,3.840741 -0.253831,9.471966 5.565435,12.045731 6.279784,2.777471 9.687275,0.541471 15.019048,5.603559 -5.062099,-5.331767 -2.826109,-8.739275 -5.603561,-15.019041 -2.573771,-5.819267 -8.185939,-1.494609 -12.026682,-5.584503 3.840743,-4.089914 9.452911,0.234749 12.026682,-5.584504 2.777469,-6.279786 0.541446,-9.687294 5.603561,-15.019062 -5.331789,5.062094 -8.739281,2.826104 -15.019048,5.603557 -5.819267,2.57377 -1.475554,8.205011 -5.565435,12.045755 C 27.899868,27.205429 32.260922,21.595974 26.434556,19.019055 20.156154,16.242218 16.727043,18.45744 11.39644,13.396444 z"
     id="path3067"
     sodipodi:nodetypes="cscscscscscscscsc"
     inkscape:export-filename="/home/bene/Desktop/path7057.png"
     inkscape:export-xdpi="90.000000"
     inkscape:export-ydpi="90.000000"
     inkscape:connector-curvature="0" />
</svg>

<svg xmlns="http://www.w3.org/2000/svg" viewBox="0 0 64 64"><g color="#000"><path d="m0 4v30 28l2 2h30 30l2-2v-28-30h-32-32" fill="#3b577a"/><path d="m2 0l-2 1v3h32 32v-3l-2-1h-30-30" fill="#668cbb"/></g><path d="m0 3v3l2-2" fill="#729bcd"/><path d="m64 6l-2-2 2-1" fill="#4f6f97"/><path d="m11.396 13.396c5.061 5.331 2.865 8.741 5.642 15.02 2.577 5.826 8.186 1.465 12.03 5.585-3.84 4.119-9.469-.261-12.05 5.565-2.777 6.278-.562 9.708-5.623 15.04 5.331-5.061 8.76-2.846 15.04-5.623 5.826-2.577 1.465-8.186 5.585-12.03 4.09 3.841-.254 9.472 5.565 12.05 6.28 2.777 9.687.541 15.02 5.604-5.062-5.332-2.826-8.739-5.604-15.02-2.574-5.819-8.186-1.495-12.03-5.585 3.841-4.09 9.453.235 12.03-5.585 2.777-6.28.541-9.687 5.604-15.02-5.332 5.062-8.739 2.826-15.02 5.604-5.819 2.574-1.476 8.205-5.565 12.05-4.119-3.84.242-9.45-5.585-12.03-6.278-2.777-9.708-.562-15.04-5.623" fill="#fff" fill-opacity=".86" color="#000"/></svg>
